app/assets/images/pivotal_directions.svg

<?xml version="1.0" encoding="UTF-8" standalone="no"?>
<svg width="119px" height="235px" viewBox="0 0 119 235" version="1.1" xmlns="http://www.w3.org/2000/svg" xmlns:xlink="http://www.w3.org/1999/xlink">
    <!-- Generator: Sketch 3.6 (26304) - http://www.bohemiancoding.com/sketch -->
    <title>Imported Layers</title>
    <desc>Created with Sketch.</desc>
    <defs></defs>
    <g id="Final" stroke="none" stroke-width="1" fill="none" fill-rule="evenodd">
        <g id="v1" transform="translate(-668.000000, -674.000000)">
            <g id="Pivotal" transform="translate(510.000000, 44.000000)">
                <g id="Imported-Layers" transform="translate(158.000000, 630.000000)">
                    <path d="M89.3079937,153.653211 L29.9526013,153.653211 C17.6044684,153.653211 6.73178481,144.916166 5.19834177,133.7623 C-0.901537975,89.438147 -0.90078481,66.4982428 5.20436709,22.1876038 C6.81086709,10.5554792 18.1444873,0.729025559 29.9526013,0.729025559 L89.3079937,0.729025559 C100.879614,0.729025559 112.449728,11.0104633 114.068278,22.7319329 C120.186234,67.1777157 120.186234,88.8675399 114.068278,133.246502 C112.515253,144.498722 101.408335,153.653211 89.3079937,153.653211 L89.3079937,153.653211 Z M29.9526013,4.48301917 C20.0966899,4.48301917 10.2754241,12.9948243 8.93479114,22.6988978 C2.88612658,66.6033546 2.88462025,89.3337859 8.92876582,133.251757 C10.2121582,142.587188 19.4467089,149.899217 29.9526013,149.899217 L89.3079937,149.899217 C99.5969747,149.899217 109.031867,142.199776 110.337854,132.735208 C116.399323,88.7669329 116.399323,67.2775719 110.337854,23.242476 C108.957304,13.249345 99.1307658,4.48301917 89.3079937,4.48301917 L29.9526013,4.48301917 L29.9526013,4.48301917 Z" id="Fill-1" fill="#9B9B9B"></path>
                    <path d="M85.2401519,133.232987 L34.0219494,133.232987 C31.5711519,133.232987 29.5782785,131.245623 29.5782785,128.803275 L29.5782785,116.889601 C29.5782785,114.447252 31.5711519,112.459888 34.0219494,112.459888 L85.2401519,112.459888 C87.6909494,112.459888 89.6838228,114.447252 89.6838228,116.889601 L89.6838228,128.803275 C89.6838228,131.245623 87.6909494,133.232987 85.2401519,133.232987 L85.2401519,133.232987 Z M34.0219494,116.213882 C33.6544051,116.213882 33.3441013,116.523211 33.3441013,116.889601 L33.3441013,128.803275 C33.3441013,129.168914 33.6544051,129.478994 34.0219494,129.478994 L85.2401519,129.478994 C85.6076962,129.478994 85.918,129.168914 85.918,128.803275 L85.918,116.889601 C85.918,116.523211 85.6076962,116.213882 85.2401519,116.213882 L34.0219494,116.213882 L34.0219494,116.213882 Z" id="Fill-2" fill="#9B9B9B"></path>
                    <path d="M83.3391646,57.1523003 C82.2990443,57.1523003 81.4562532,56.3121565 81.4562532,55.2753035 C81.4562532,43.2775399 71.6651139,33.5164058 59.6310506,33.5164058 C58.5909304,33.5164058 57.7481392,32.676262 57.7481392,31.6394089 C57.7481392,30.6025559 58.5909304,29.7624121 59.6310506,29.7624121 C73.7415886,29.7624121 85.2220759,41.2075879 85.2220759,55.2753035 C85.2220759,56.3121565 84.3792848,57.1523003 83.3391646,57.1523003" id="Fill-3" fill="#9B9B9B"></path>
                    <path d="M49.0310127,78.2940415 C48.7485759,78.2940415 48.4616203,78.2309744 48.1912342,78.0965815 C41.3171013,74.6766933 36.3936646,68.4443131 34.6847342,60.9978914 C34.4520063,59.9873163 35.0861709,58.9804952 36.0999304,58.7492492 C37.1106772,58.5165016 38.1229304,59.1494249 38.3549051,60.16 C39.8122785,66.5072524 44.0111709,71.8214058 49.8730506,74.737508 C50.8032089,75.2 51.1812975,76.3276997 50.7173481,77.2549361 C50.3867089,77.9133866 49.7224177,78.2940415 49.0310127,78.2940415" id="Fill-4" fill="#9B9B9B"></path>
                    <path d="M59.6310506,70.2822684 C51.3296709,70.2822684 44.5775506,63.550607 44.5775506,55.2753035 C44.5775506,47.0007508 51.3296709,40.2683387 59.6310506,40.2683387 C67.9316772,40.2683387 74.6853038,47.0007508 74.6853038,55.2753035 C74.6853038,63.550607 67.9316772,70.2822684 59.6310506,70.2822684 L59.6310506,70.2822684 Z M59.6310506,44.0223323 C53.4068987,44.0223323 48.3433734,49.0707029 48.3433734,55.2753035 C48.3433734,61.480655 53.4068987,66.5282748 59.6310506,66.5282748 C65.8559557,66.5282748 70.919481,61.480655 70.919481,55.2753035 C70.919481,49.0707029 65.8559557,44.0223323 59.6310506,44.0223323 L59.6310506,44.0223323 Z" id="Fill-5" fill="#9B9B9B"></path>
                    <path d="M59.6310506,93.9159105 C38.2562405,93.9159105 20.8664241,76.5814696 20.8664241,55.2753035 C20.8664241,33.9676358 38.2562405,16.6324441 59.6310506,16.6324441 C81.0066139,16.6324441 98.3964304,33.9676358 98.3964304,55.2753035 C98.3964304,76.5814696 81.0066139,93.9159105 59.6310506,93.9159105 L59.6310506,93.9159105 Z M59.6310506,20.3864377 C40.3327152,20.3864377 24.6322468,36.0375879 24.6322468,55.2753035 C24.6322468,74.5122684 40.3327152,90.1619169 59.6310506,90.1619169 C78.9293861,90.1619169 94.6306076,74.5122684 94.6306076,55.2753035 C94.6306076,36.0375879 78.9293861,20.3864377 59.6310506,20.3864377 L59.6310506,20.3864377 Z" id="Fill-6" fill="#9B9B9B"></path>
                    <path d="M81.9352658,171.131805 C80.8951456,171.131805 80.0523544,170.291661 80.0523544,169.254808 L80.0523544,158.79393 C80.0523544,156.130096 77.6874177,153.879201 74.8879051,153.879201 C72.0883924,153.879201 69.7227025,156.084297 69.7227025,158.694073 L69.7227025,169.254808 C69.7227025,170.291661 68.8799114,171.131805 67.8397911,171.131805 C66.7996709,171.131805 65.9568797,170.291661 65.9568797,169.254808 L65.9568797,158.694073 C65.9568797,153.969297 69.9637152,150.125208 74.8879051,150.125208 C79.7284937,150.125208 83.8181772,154.095431 83.8181772,158.79393 L83.8181772,169.254808 C83.8181772,170.291661 82.9753861,171.131805 81.9352658,171.131805" id="Fill-7" fill="#9B9B9B"></path>
                    <path d="M96.0299873,175.815288 C94.9898671,175.815288 94.1470759,174.975144 94.1470759,173.938291 L94.1470759,161.680751 C94.1470759,159.016166 91.7813861,156.765272 88.9826266,156.765272 C86.1831139,156.765272 83.8181772,158.970367 83.8181772,161.580144 L83.8181772,173.938291 C83.8181772,174.975144 82.9753861,175.815288 81.9352658,175.815288 C80.8951456,175.815288 80.0523544,174.975144 80.0523544,173.938291 L80.0523544,161.580144 C80.0523544,156.855367 84.0576835,153.011278 88.9826266,153.011278 C93.8232152,153.011278 97.9128987,156.980751 97.9128987,161.680751 L97.9128987,173.938291 C97.9128987,174.975144 97.0701076,175.815288 96.0299873,175.815288" id="Fill-8" fill="#9B9B9B"></path>
                    <path d="M92.4562215,234.360319 L65.9079241,234.360319 C55.0759114,234.360319 47.2437532,217.213578 40.3327152,202.084984 C37.6687722,196.252029 35.1516962,190.742668 33.0398228,187.777013 C30.5393165,184.269281 29.8667405,178.860527 33.4209241,175.310751 C36.9050633,171.839058 41.8307595,171.702412 45.1318797,174.987907 C45.151462,175.008179 45.1717975,175.02845 45.1898734,175.048722 L51.8614051,182.305192 L51.8614051,130.692284 C51.8614051,125.993035 55.9510886,122.023562 60.7924304,122.023562 C65.7166203,122.023562 69.7227025,125.866901 69.7227025,130.591677 L69.7227025,159.887093 C69.7227025,160.923946 68.8799114,161.76484 67.8397911,161.76484 C66.7996709,161.76484 65.9568797,160.923946 65.9568797,159.887093 L65.9568797,130.591677 C65.9568797,127.981901 63.591943,125.777556 60.7924304,125.777556 C57.9929177,125.777556 55.6272278,128.02845 55.6272278,130.692284 L55.6272278,187.132077 C55.6272278,187.90615 55.1512278,188.600639 54.4274367,188.881438 C53.7021392,189.161486 52.8811899,188.970783 52.3569873,188.400176 L42.4445886,177.617955 C40.6038544,175.812284 38.1116329,175.945176 36.0848671,177.964073 C34.0287278,180.018259 34.5627215,183.432891 36.1097215,185.6027 C38.4302215,188.861166 40.9006013,194.268419 43.7603671,200.529329 C49.5582278,213.223083 57.4988418,230.606326 65.9079241,230.606326 L91.9967911,230.606326 C94.4114367,229.309696 108.242551,221.199569 108.242551,205.758642 L108.242551,168.161645 C108.242551,165.497061 105.876861,163.246166 103.077348,163.246166 C100.278589,163.246166 97.9128987,165.451262 97.9128987,168.061038 L97.9128987,178.621773 C97.9128987,179.658626 97.0701076,180.49877 96.0299873,180.49877 C94.9898671,180.49877 94.1470759,179.658626 94.1470759,178.621773 L94.1470759,168.061038 C94.1470759,163.336262 98.1531582,159.492173 103.077348,159.492173 C107.91869,159.492173 112.008373,163.462396 112.008373,168.161645 L112.008373,205.758642 C112.008373,224.986597 94.0356076,233.809984 93.2711456,234.175623 C93.0165759,234.298003 92.7386582,234.360319 92.4562215,234.360319" id="Fill-9" fill="#9B9B9B"></path>
                    <path d="M43.8017911,176.316821 L53.7450696,187.131326 L53.7450696,130.692284 C53.7450696,126.964569 56.9934684,123.900559 60.7924304,123.900559 C64.5913924,123.900559 67.8397911,126.863962 67.8397911,130.591677 L67.8397911,159.887843" id="Fill-10" fill="#FFFFFF"></path>
                    <path d="M53.7450696,189.009073 C53.2268924,189.009073 52.7200127,188.795847 52.3569873,188.400176 L42.4137089,177.58492 C41.7110063,176.820607 41.7629747,175.633594 42.5296962,174.933099 C43.2964177,174.231853 44.4864177,174.284409 45.1898734,175.048722 L51.8614051,182.305192 L51.8614051,130.692284 C51.8614051,125.993035 55.9510886,122.023562 60.7924304,122.023562 C65.7166203,122.023562 69.7227025,125.866901 69.7227025,130.591677 L69.7227025,159.887093 C69.7227025,160.923946 68.8799114,161.76484 67.8397911,161.76484 C66.7996709,161.76484 65.9568797,160.923946 65.9568797,159.887093 L65.9568797,130.591677 C65.9568797,127.981901 63.591943,125.777556 60.7924304,125.777556 C57.9929177,125.777556 55.6272278,128.02845 55.6272278,130.692284 L55.6272278,187.132077 C55.6272278,187.90615 55.1512278,188.600639 54.4274367,188.881438 C54.2052532,188.967029 53.9740316,189.009073 53.7450696,189.009073" id="Fill-11" fill="#9B9B9B"></path>
                </g>
            </g>
        </g>
    </g>
</svg>

<svg width="119" height="235" viewBox="0 0 119 235" xmlns="http://www.w3.org/2000/svg"><title>Imported Layers</title><g fill="none" fill-rule="evenodd"><path d="M89.308 153.653H29.953c-12.35 0-23.22-8.737-24.755-19.89-6.1-44.325-6.1-67.265.006-111.575C6.81 10.555 18.144.728 29.954.728h59.354c11.572 0 23.142 10.282 24.76 22.004 6.118 44.446 6.118 66.136 0 110.515-1.553 11.252-12.66 20.406-24.76 20.406zM29.953 4.483c-9.856 0-19.678 8.512-21.018 18.216-6.05 43.903-6.05 66.634-.006 110.552 1.282 9.335 10.517 16.647 21.023 16.647h59.355c10.29 0 19.724-7.7 21.03-17.165 6.06-43.968 6.06-65.457 0-109.493-1.38-9.993-11.207-18.76-21.03-18.76H29.953z" fill="#9B9B9B"/><path d="M85.24 133.233H34.022c-2.45 0-4.444-1.987-4.444-4.43V116.89c0-2.443 1.993-4.43 4.444-4.43H85.24c2.45 0 4.444 1.987 4.444 4.43v11.913c0 2.443-1.993 4.43-4.444 4.43zm-51.218-17.02a.686.686 0 0 0-.678.677v11.913c0 .366.31.676.678.676H85.24c.368 0 .678-.31.678-.677V116.89a.686.686 0 0 0-.678-.676H34.022zM83.34 57.152a1.88 1.88 0 0 1-1.884-1.877c0-11.997-9.79-21.76-21.825-21.76a1.88 1.88 0 0 1-1.882-1.876 1.88 1.88 0 0 1 1.883-1.878c14.112 0 25.592 11.446 25.592 25.513a1.88 1.88 0 0 1-1.883 1.877M49.03 78.294c-.28 0-.568-.063-.84-.197-6.873-3.42-11.796-9.653-13.505-17.1a1.883 1.883 0 0 1 3.67-.838c1.457 6.347 5.656 11.66 11.518 14.578a1.875 1.875 0 0 1-.842 3.556" fill="#9B9B9B"/><path d="M59.63 70.282c-8.3 0-15.052-6.73-15.052-15.007 0-8.274 6.752-15.007 15.053-15.007 8.302 0 15.055 6.733 15.055 15.007 0 8.276-6.753 15.007-15.054 15.007zm0-26.26c-6.223 0-11.287 5.05-11.287 11.253 0 6.206 5.064 11.253 11.288 11.253 6.226 0 11.29-5.047 11.29-11.253 0-6.204-5.064-11.253-11.29-11.253z" fill="#9B9B9B"/><path d="M59.63 93.916c-21.374 0-38.764-17.335-38.764-38.64 0-21.308 17.39-38.644 38.765-38.644 21.377 0 38.766 17.336 38.766 38.643 0 21.306-17.39 38.64-38.765 38.64zm0-73.53c-19.297 0-34.998 15.652-34.998 34.89 0 19.236 15.7 34.886 35 34.886 19.297 0 35-15.65 35-34.887 0-19.237-15.703-34.89-35-34.89zM81.935 171.132a1.88 1.88 0 0 1-1.883-1.877v-10.46c0-2.665-2.365-4.916-5.164-4.916-2.8 0-5.165 2.204-5.165 4.814v10.56a1.88 1.88 0 0 1-1.883 1.878 1.88 1.88 0 0 1-1.883-1.877v-10.56c0-4.726 4.007-8.57 8.93-8.57 4.84 0 8.93 3.97 8.93 8.67v10.46a1.88 1.88 0 0 1-1.882 1.877" fill="#9B9B9B"/><path d="M96.03 175.815a1.88 1.88 0 0 1-1.883-1.877V161.68c0-2.664-2.366-4.915-5.164-4.915-2.8 0-5.165 2.205-5.165 4.815v12.358a1.88 1.88 0 0 1-1.883 1.877 1.88 1.88 0 0 1-1.883-1.877V161.58c0-4.725 4.006-8.57 8.93-8.57 4.84 0 8.93 3.97 8.93 8.67v12.258a1.88 1.88 0 0 1-1.882 1.877" fill="#9B9B9B"/><path d="M92.456 234.36H65.908c-10.832 0-18.664-17.146-25.575-32.275-2.664-5.833-5.18-11.342-7.293-14.308-2.5-3.508-3.173-8.916.38-12.466 3.485-3.47 8.41-3.608 11.712-.322l.058.06 6.67 7.257v-51.613c0-4.7 4.09-8.668 8.932-8.668 4.925 0 8.93 3.843 8.93 8.568v29.295a1.88 1.88 0 0 1-1.882 1.878 1.88 1.88 0 0 1-1.883-1.878v-29.295c0-2.61-2.365-4.814-5.165-4.814s-5.165 2.25-5.165 4.914v56.44c0 .774-.476 1.47-1.2 1.75-.725.28-1.546.09-2.07-.482l-9.912-10.782c-1.84-1.806-4.333-1.673-6.36.346-2.056 2.054-1.522 5.47.025 7.64 2.32 3.257 4.79 8.664 7.65 14.925 5.798 12.693 13.74 30.076 22.148 30.076h26.09c2.413-1.296 16.245-9.406 16.245-24.847V168.16c0-2.665-2.366-4.916-5.166-4.916-2.798 0-5.164 2.205-5.164 4.815v10.562a1.88 1.88 0 0 1-1.883 1.877 1.88 1.88 0 0 1-1.883-1.878v-10.56c0-4.726 4.006-8.57 8.93-8.57 4.842 0 8.93 3.97 8.93 8.67v37.597c0 19.227-17.97 28.05-18.736 28.416a1.878 1.878 0 0 1-.814.184" fill="#9B9B9B"/><path d="M43.802 176.317l9.943 10.814v-56.438c0-3.727 3.248-6.79 7.047-6.79 3.8 0 7.048 2.962 7.048 6.69v29.296" fill="#FFF"/><path d="M53.745 189.01a1.883 1.883 0 0 1-1.388-.61l-9.943-10.815a1.873 1.873 0 0 1 .116-2.652c.766-.7 1.956-.65 2.66.116l6.67 7.255v-51.613c0-4.7 4.09-8.668 8.932-8.668 4.925 0 8.93 3.843 8.93 8.568v29.295a1.88 1.88 0 0 1-1.882 1.878 1.88 1.88 0 0 1-1.883-1.878v-29.295c0-2.61-2.365-4.814-5.165-4.814s-5.165 2.25-5.165 4.914v56.44a1.877 1.877 0 0 1-1.882 1.877" fill="#9B9B9B"/></g></svg>
